icons/desktop/20/sparkle-single-20.svg

<svg width="20" height="20" viewBox="0 0 20 20" fill="none" xmlns="http://www.w3.org/2000/svg">
<path fill-rule="evenodd" clip-rule="evenodd" d="M7.74858 2.37635C8.71394 0.480794 11.4962 0.543862 12.3404 2.5658L12.5064 2.97205C12.5615 3.11015 12.6166 3.25073 12.6705 3.39392C13.015 4.30561 13.2827 5.17332 13.4927 5.97791L13.523 6.06873C13.6096 6.27451 13.8007 6.44499 14.066 6.51404C14.7632 6.69563 15.5022 6.92127 16.272 7.19959C16.6703 7.34375 17.0525 7.49479 17.4205 7.64881C19.51 8.52463 19.5399 11.462 17.4302 12.3461C17.0978 12.4855 16.75 12.6222 16.3902 12.7543L16.3912 12.7553C15.5757 13.0553 14.796 13.2959 14.063 13.4877C13.7593 13.5672 13.5565 13.7766 13.4937 14.017C13.2695 14.8724 12.9788 15.8036 12.5992 16.7855L12.6001 16.7865L12.3365 17.4418C11.496 19.4541 8.713 19.5172 7.75151 17.6303L7.66459 17.4418L7.4019 16.7885C7.02179 15.8056 6.73174 14.8741 6.50737 14.0179C6.44436 13.7779 6.24099 13.567 5.93803 13.4877C5.2064 13.296 4.42561 13.0554 3.60991 12.7553L3.60893 12.7543C3.25122 12.6219 2.90557 12.4856 2.57182 12.3461C0.462129 11.462 0.490067 8.52464 2.57963 7.64881L3.14311 7.42029C3.33467 7.34543 3.53019 7.27255 3.72905 7.20056C4.49881 6.92225 5.23784 6.69563 5.9351 6.51404C6.23876 6.43498 6.44398 6.22413 6.50834 5.97888L6.67729 5.36365C6.85749 4.73691 7.07295 4.07724 7.33158 3.39295V3.39099C7.43889 3.10828 7.54907 2.83346 7.66069 2.5658L7.74858 2.37635ZM10.7251 3.23963C10.4524 2.58742 9.54866 2.58742 9.27592 3.23963C9.1716 3.4898 9.06893 3.74698 8.9683 4.01209C8.72761 4.64894 8.52682 5.26312 8.35893 5.84705L8.2017 6.42127C7.97694 7.2804 7.32195 7.90238 6.53569 8.16053L6.37651 8.2074C5.89145 8.33372 5.38364 8.48397 4.85698 8.66053L4.32475 8.84607C4.13976 8.91304 3.95787 8.98059 3.77983 9.05017L3.25639 9.26306C2.57811 9.54731 2.58934 10.456 3.2476 10.7318C3.55907 10.862 3.88002 10.9893 4.21342 11.1127C4.97346 11.3924 5.70121 11.6161 6.38139 11.7943C7.23205 12.0169 7.96142 12.6602 8.20073 13.5736L8.36967 14.1869C8.55066 14.8113 8.76841 15.4715 9.03373 16.1576C9.11373 16.3648 9.19669 16.5688 9.27983 16.7679C9.5485 17.4104 10.4526 17.4104 10.7212 16.7679C10.8048 16.5678 10.887 16.3652 10.9664 16.1586L10.9673 16.1576C11.3212 15.2426 11.5907 14.3734 11.8003 13.5736C12.0398 12.6585 12.7697 12.0167 13.6197 11.7943C14.3005 11.6162 15.0264 11.3925 15.7867 11.1127C16.1187 10.9908 16.442 10.8624 16.7535 10.7318C17.4117 10.456 17.4229 9.54731 16.7447 9.26306C16.5729 9.1912 16.3981 9.11973 16.2203 9.05017L15.6763 8.84607C15.1377 8.65134 14.6165 8.48446 14.1167 8.34217L13.6246 8.2074C12.8215 7.99829 12.1309 7.41584 11.8501 6.59021L11.7994 6.42127C11.6035 5.67049 11.3539 4.86061 11.0328 4.01111L11.0318 4.01013C10.9333 3.74825 10.8303 3.4918 10.7251 3.23963Z" fill="black"/>
</svg>

<!-- This Source Code Form is subject to the terms of the Mozilla Public
   - License, v. 2.0. If a copy of the MPL was not distributed with this
   - file, You can obtain one at http://mozilla.org/MPL/2.0/. -->
<svg xmlns="http://www.w3.org/2000/svg" width="20" height="20" fill="context-fill" fill-opacity="context-fill-opacity" viewBox="0 0 20 20">
    <path fill-rule="evenodd" d="M7.749 2.376c.965-1.895 3.747-1.832 4.591.19l.166.406q.083.207.165.422c.344.912.612 1.78.822 2.584l.03.09a.79.79 0 0 0 .543.446 25 25 0 0 1 3.355 1.135c2.089.876 2.119 3.813.01 4.697q-.5.21-1.04.408v.001c-.815.3-1.595.54-2.328.733-.304.08-.507.289-.57.529a26 26 0 0 1-.894 2.768l.001.002-.264.655c-.84 2.012-3.623 2.075-4.584.188l-.087-.188-.263-.654c-.38-.982-.67-1.914-.895-2.77-.063-.24-.266-.451-.569-.53a25 25 0 0 1-2.328-.733h-.001a27 27 0 0 1-1.037-.409C.462 11.462.49 8.525 2.58 7.65l.563-.229q.288-.111.586-.22c.77-.278 1.509-.504 2.206-.686.304-.079.509-.29.573-.535l.17-.615c.18-.627.395-1.287.654-1.971v-.002q.16-.425.329-.825zm2.976.864a.781.781 0 0 0-1.45 0q-.155.375-.307.772-.358.957-.61 1.835l-.156.574c-.225.86-.88 1.481-1.666 1.74l-.16.046q-.728.19-1.519.454l-.532.185q-.278.1-.545.204l-.524.213a.789.789 0 0 0-.008 1.469 23.608 23.608 0 0 0 3.134 1.063c.85.222 1.58.865 1.819 1.779l.169.613a24 24 0 0 0 .91 2.58.78.78 0 0 0 1.441 0q.126-.3.245-.608l.001-.001c.354-.915.624-1.785.833-2.584.24-.915.97-1.557 1.82-1.78a23.5 23.5 0 0 0 3.133-1.062.789.789 0 0 0-.008-1.469 24 24 0 0 0-.525-.213l-.544-.204a24 24 0 0 0-1.56-.504l-.491-.135c-.803-.209-1.494-.791-1.775-1.617l-.05-.169c-.197-.75-.446-1.56-.767-2.41h-.001a23 23 0 0 0-.307-.771" clip-rule="evenodd" />
</svg>
